archdroid-icon-theme/Archdroid-Pink/mimetypes/scalable/application-msword.svg

<svg xmlns="http://www.w3.org/2000/svg" fill="#E91E63" viewBox="0 0 48 48"><g fill="#00188f"><path d="m28 4h-16c-2.21 0-3.98 1.79-3.98 4l-.02 32c0 2.21 1.77 4 3.98 4h24.02c2.21 0 4-1.79 4-4v-24l-12-12m4 32h-16v-4h16v4zm0-8h-16v-4h16v4m-6-10v-11l11 11h-11"/></g></svg>

<?xml version="1.0" encoding="UTF-8" standalone="no"?>
<svg
   xmlns:dc="http://purl.org/dc/elements/1.1/"
   xmlns:cc="http://creativecommons.org/ns#"
   xmlns:rdf="http://www.w3.org/1999/02/22-rdf-syntax-ns#"
   xmlns:svg="http://www.w3.org/2000/svg"
   xmlns="http://www.w3.org/2000/svg"
   xmlns:sodipodi="http://sodipodi.sourceforge.net/DTD/sodipodi-0.dtd"
   xmlns:inkscape="http://www.inkscape.org/namespaces/inkscape"
   fill="#E91E63"
   width="48"
   height="48"
   viewBox="0 0 48 48"
   id="svg2"
   version="1.1"
   inkscape:version="0.91 r13725"
   sodipodi:docname="libreoffice-oasis-text.svg">
  <metadata
     id="metadata10">
    <rdf:RDF>
      <cc:Work
         rdf:about="">
        <dc:format>image/svg+xml</dc:format>
        <dc:type
           rdf:resource="http://purl.org/dc/dcmitype/StillImage" />
        <dc:title />
      </cc:Work>
    </rdf:RDF>
  </metadata>
  <defs
     id="defs8" />
  <sodipodi:namedview
     pagecolor="#ffffff"
     bordercolor="#666666"
     borderopacity="1"
     objecttolerance="10"
     gridtolerance="10"
     guidetolerance="10"
     inkscape:pageopacity="0"
     inkscape:pageshadow="2"
     inkscape:window-width="1366"
     inkscape:window-height="713"
     id="namedview6"
     showgrid="false"
     inkscape:zoom="6.9532167"
     inkscape:cx="-16.396593"
     inkscape:cy="14.621084"
     inkscape:window-x="0"
     inkscape:window-y="30"
     inkscape:window-maximized="1"
     inkscape:current-layer="svg2"
     inkscape:snap-bbox="true"
     inkscape:bbox-paths="true"
     inkscape:bbox-nodes="true"
     inkscape:snap-bbox-edge-midpoints="true"
     inkscape:snap-bbox-midpoints="true"
     inkscape:snap-object-midpoints="true" />
  <g
     style="fill:#00188f;fill-opacity:1"
     id="g4143">
    <path
       id="path4135"
       d="M 28,4 12,4 C 9.79,4 8.02,5.79 8.02,8 L 8,40 c 0,2.21 1.77,4 3.98,4 L 36,44 c 2.21,0 4,-1.79 4,-4 L 40,16 28,4 Z m 4,32 -16,0 0,-4 16,0 0,4 z m 0,-8 -16,0 0,-4 16,0 0,4 z M 26,18 26,7 37,18 26,18 Z"
       inkscape:connector-curvature="0"
       style="fill:#00188f;fill-opacity:1" />
  </g>
</svg>
